X:2571
T:Cantar de Ronda (CT 430)
R:Ronda
C:Tradicional
S:Música Tradicional Asturiana, (C) Tello & Tito. Asturies, 2001.
S:http://pagina.de/MusTradAst <telloytito@asturies.org>
N:Canción de Ronda, dictada por Severino Martínez Iglesias, de cuarenta y un años, de Llanuces, ayuntamiento de Quirós.
O:Llanuces (Quirós)
A:Asturies
Z:Cancioneru de Torner 430
M:6/8
L:1/8
Q:3/8=60
W:Bien lo sabes,
W:que te quiero,
W:bien lo sabes,
W:que te olvido
W:no lo inores;
W:no lo inores;
W:si tus culpas lo merecen,
W:¿qué se me dá que tú llores?
K:Cm
GG
|c2 c-c3-|c2 z2 cd|
e2 c d2 B|G-G/4A/4G/4A/4 B-B3-|B2 z2 Bc|
d2 B c2 A|G2 G-G3-|G2 z2 GG|
c2 c-c3-|c2 z2 cd|
e2 c d2 B|G-G/4A/4G/4A/4 B-B3-|B2 z2 Bc|
d2 B c2 A|G2 G-G3-|G2 ||


